src/assets/images/skills_icons/codeigniter.svg

<svg width="65" height="84.223" viewBox="0 0 65 84.223" xmlns="http://www.w3.org/2000/svg" preserveAspectRatio="xMidYMid"><title>CodeIgniter</title><path d="M21.6401992,83.3268862 C16.2924203,80.9642776 12.6586398,75.87438 12.1819503,70.0447019 C12.4945336,64.0483128 15.6620441,58.567686 20.6920299,55.298586 C19.8662891,57.3121432 20.0668634,59.6044206 21.213002,61.446057 C22.5180372,63.2694594 24.7634271,64.1446926 26.9619294,63.688842 C30.0929719,62.8083991 31.9267937,59.5575331 31.0463509,56.4238858 C30.7337676,55.3272394 30.108601,54.3321827 29.2542068,53.5819828 C25.7115963,50.701007 23.9324765,46.1737592 24.5654577,41.6491164 C25.1723902,39.2526446 26.4982642,37.0854006 28.371159,35.4495481 C26.9645343,39.2005474 30.931737,42.9020543 33.5939045,44.7228519 C38.3191217,47.5569402 42.8672083,50.6723535 47.2225353,54.0508577 C51.9816156,57.801857 54.5760568,63.6732128 54.1696985,69.6800214 C53.0991008,76.0723494 48.5770628,81.349797 42.4139626,83.329491 C54.7427679,80.5865728 67.4544877,70.7922969 67.6967397,56.9005752 C67.4544877,45.785635 60.8199077,35.8116237 50.6791853,31.2687468 L50.2285444,31.2687468 C50.4525624,31.8131627 50.5619666,32.3992563 50.5411277,32.9905597 C50.5749909,32.6076452 50.5749909,32.2273355 50.5411277,31.844421 C50.5958298,32.2950619 50.5958298,32.7483076 50.5411277,33.1989485 C49.770089,36.3586444 46.5817396,38.3044753 43.4142291,37.5334366 C42.1482668,37.2208533 41.0177573,36.5097264 40.2050408,35.4834113 C36.1414582,30.2736901 40.2050408,24.3450273 40.8849094,18.6143339 C41.3016871,11.286861 37.9544412,4.28239085 32.015359,0 C34.987505,4.95444489 31.0281168,11.4613867 28.1497459,15.1628936 C25.2661652,18.8644006 21.0983882,21.622948 17.7016499,24.8529751 C14.0418208,28.2575279 10.6867603,32.0007126 7.67554143,36.0017785 C1.16599476,43.954418 -1.3893735,54.4441917 0.728378176,64.4989537 C3.63279776,74.1890351 11.6870268,81.4696206 21.6193603,83.3581445 L21.6740624,83.3581445 L21.6401992,83.3268862 Z" fill="#DD4814"/></svg>

<svg xmlns="http://www.w3.org/2000/svg" width="65" height="84.223" preserveAspectRatio="xMidYMid"><path fill="#DD4814" d="M21.64 83.327a15.94 15.94 0 0 1-9.458-13.282 18.75 18.75 0 0 1 8.51-14.746 6.78 6.78 0 0 0 .521 6.147 5.64 5.64 0 0 0 5.749 2.243c3.131-.88 4.965-4.131 4.084-7.265a5.97 5.97 0 0 0-1.792-2.842 13.05 13.05 0 0 1-4.689-11.933 12.2 12.2 0 0 1 3.806-6.2c-1.406 3.752 2.56 7.453 5.223 9.274a138 138 0 0 1 13.629 9.328A18.36 18.36 0 0 1 54.17 69.68c-1.07 6.392-5.593 11.67-11.756 13.65 12.329-2.743 25.04-12.538 25.283-26.43-.243-11.114-6.877-21.088-17.018-25.631h-.45c.224.544.333 1.13.312 1.722a6.5 6.5 0 0 0 0-1.147q.082.677 0 1.355a5.9 5.9 0 0 1-7.127 4.334 5.88 5.88 0 0 1-3.209-2.05c-4.064-5.21 0-11.138.68-16.869A21.43 21.43 0 0 0 32.015 0c2.973 4.954-.987 11.461-3.865 15.163-2.884 3.701-7.052 6.46-10.448 9.69A85 85 0 0 0 7.676 36.002 33.96 33.96 0 0 0 .728 64.499c2.905 9.69 10.959 16.97 20.891 18.86h.055z"/></svg>
